Newaita-dark/actions/24/draw-spiral.svg

<?xml version="1.0" encoding="UTF-8"?>
<svg xmlns="http://www.w3.org/2000/svg" xmlns:xlink="http://www.w3.org/1999/xlink" width="24pt" height="24pt" viewBox="0 0 24 24" version="1.1">
<g id="surface1">
<path style=" stroke:none;fill-rule:evenodd;fill:rgb(61.176473%,80.000001%,39.607844%);fill-opacity:1;" d="M 13.265625 1.339844 C 7.789062 1.472656 2.839844 5.539062 2.148438 11.175781 C 1.460938 16.800781 5.429688 22.257812 11.160156 22.929688 C 16.285156 23.527344 21.257812 19.894531 21.832031 14.65625 C 22.339844 10.027344 19.039062 5.542969 14.296875 5.0625 C 10.164062 4.648438 6.164062 7.613281 5.785156 11.863281 C 5.460938 15.5 8.089844 19.011719 11.851562 19.292969 C 14.992188 19.527344 18.023438 17.226562 18.195312 13.953125 C 18.335938 11.3125 16.363281 8.761719 13.578125 8.699219 C 11.433594 8.652344 9.355469 10.308594 9.421875 12.613281 C 9.445312 13.433594 9.78125 14.21875 10.34375 14.800781 C 10.90625 15.386719 11.746094 15.769531 12.664062 15.648438 C 13.246094 15.574219 13.769531 15.292969 14.160156 14.839844 C 14.550781 14.386719 14.78125 13.652344 14.503906 12.96875 C 14.304688 12.476562 14.019531 12.296875 13.601562 12.144531 C 13.390625 12.070312 13.105469 12.011719 12.777344 12.148438 C 12.445312 12.285156 12.214844 12.652344 12.160156 12.953125 C 12.15625 13.832031 13.421875 14.019531 12.472656 14.164062 C 12.058594 14.214844 11.71875 14.066406 11.421875 13.761719 C 11.128906 13.457031 10.933594 12.996094 10.921875 12.570312 C 10.882812 11.210938 12.195312 10.167969 13.542969 10.199219 C 15.414062 10.238281 16.796875 12.027344 16.699219 13.875 C 16.570312 16.25 14.304688 17.96875 11.964844 17.796875 C 9.085938 17.582031 7.027344 14.832031 7.28125 11.996094 C 7.582031 8.621094 10.816406 6.222656 14.148438 6.558594 C 18.023438 6.945312 20.761719 10.667969 20.339844 14.492188 C 19.859375 18.867188 15.652344 21.941406 11.332031 21.4375 C 6.464844 20.871094 3.046875 16.175781 3.636719 11.359375 C 4.296875 5.992188 9.480469 2.238281 14.789062 2.917969 L 14.980469 1.429688 C 14.40625 1.355469 13.832031 1.328125 13.265625 1.339844 Z M 13.265625 1.339844 "/>
</g>
</svg>

<svg xmlns="http://www.w3.org/2000/svg" width="32" height="32" viewBox="0 0 24 24"><path d="M13.266 1.34c-5.477.133-10.426 4.2-11.118 9.836C1.461 16.8 5.43 22.258 11.16 22.93c5.125.597 10.098-3.035 10.672-8.274.508-4.629-2.793-9.113-7.535-9.594-4.133-.414-8.133 2.551-8.512 6.801-.324 3.637 2.305 7.149 6.067 7.43 3.14.234 6.171-2.066 6.343-5.34.14-2.64-1.832-5.191-4.617-5.254-2.144-.047-4.223 1.61-4.156 3.914.023.82.36 1.606.922 2.188.562.586 1.402.969 2.32.847a2.351 2.351 0 0 0 1.496-.808c.39-.453.621-1.188.344-1.871-.2-.492-.484-.672-.902-.824a1.104 1.104 0 0 0-.825.003c-.332.137-.562.504-.617.805-.004.879 1.262 1.067.313 1.211-.414.05-.754-.098-1.051-.402a1.875 1.875 0 0 1-.5-1.192c-.04-1.36 1.273-2.402 2.621-2.37 1.871.038 3.254 1.827 3.156 3.675-.129 2.375-2.394 4.094-4.734 3.922-2.88-.215-4.938-2.965-4.684-5.8.301-3.376 3.535-5.774 6.867-5.438 3.875.386 6.614 4.109 6.192 7.933-.48 4.375-4.688 7.45-9.008 6.945-4.867-.566-8.285-5.261-7.695-10.078.66-5.367 5.843-9.12 11.152-8.441l.191-1.488a11.524 11.524 0 0 0-1.714-.09zm0 0" fill-rule="evenodd" fill="#9ccc65"/></svg>
